X: 316
T: A Potato For Emile
R: reel
M: 4/4
K: Bminor
|:~B2dA BFFA|BBdA fgfe|dBBA BFFA|Bffb fedc|
dBBA FBBc|BAFE FED2|A,B,DE FABc|dfec ABB2:|
|:d2c2 ~B2FB|[M:6/4] ABF2 ABFA Bcde|fbfe dfce ~B2FB|dBFB A2ag fedc|
[M:4/4]d2c2 ~B2FB|[M:6/4] ABFB AFED EB,B,2|[M:4/4] A,B,DE FABc|dfec ABB2:|

